brandFactory_export/1.Light/Nieve copo de nieve _1Light.svg

<?xml version="1.0" encoding="UTF-8"?>
<svg width="24px" height="24px" viewBox="0 0 24 24" version="1.1" xmlns="http://www.w3.org/2000/svg" xmlns:xlink="http://www.w3.org/1999/xlink">
    <title>1.Light/Nieve copo de nieve _1Light</title>
    <g id="Symbols" stroke="none" stroke-width="1" fill="none" fill-rule="evenodd">
        <g id="1.Light/Nieve-copo-de-nieve-_1Light" fill="#5CB615" fill-rule="nonzero">
            <path d="M22.0268908,12.2689076 L22.3932773,12.2689076 C22.6857143,12.2689076 22.9210084,12.0336134 22.9210084,11.7411765 C22.9210084,11.4487395 22.6857143,11.2134454 22.3932773,11.2134454 L22.1680672,11.2134454 L23.502521,9.8789916 C23.7109244,9.67394958 23.7109244,9.33781513 23.502521,9.13277311 C23.297479,8.92773109 22.9613445,8.92773109 22.7563025,9.13277311 L20.6722689,11.2168067 L19.2739496,11.2168067 L19.9764706,10.5142857 C20.1815126,10.3092437 20.1815126,9.97310924 19.9764706,9.76806723 C19.7680672,9.56302521 19.4352941,9.56302521 19.2302521,9.76806723 L17.7815126,11.2168067 L13.1764706,11.2168067 L17.589916,6.80336134 L20.3092437,6.80336134 C20.6016807,6.80336134 20.8369748,6.56806723 20.8369748,6.27563025 C20.8369748,5.98319328 20.6016807,5.74789916 20.3092437,5.74789916 L18.6487395,5.74789916 L18.7596639,5.63697479 C18.9680672,5.42857143 18.9680672,5.09579832 18.7596639,4.8907563 C18.5546218,4.68235294 18.2184874,4.68235294 18.0134454,4.8907563 L17.989916,4.91428571 L17.989916,3.42857143 C17.989916,3.13613445 17.7546218,2.90084034 17.4621849,2.90084034 C17.1697479,2.90084034 16.9344538,3.13613445 16.9344538,3.42857143 L16.9344538,5.97310924 L12.3731092,10.5210084 L12.3731092,6.00336134 L13.9193277,4.45714286 C14.1243697,4.25210084 14.1243697,3.91596639 13.9193277,3.71092437 C13.7142857,3.50588235 13.3781513,3.50588235 13.1731092,3.71092437 L12.3731092,4.51092437 L12.3731092,3.05882353 L14.5277311,0.904201681 C14.7361345,0.699159664 14.7361345,0.36302521 14.5277311,0.157983193 C14.3226891,-0.0470588235 13.9865546,-0.0470588235 13.7815126,0.157983193 L12.3764706,1.56302521 L12.3764706,1.19663866 C12.3764706,0.904201681 12.1411765,0.668907563 11.8487395,0.668907563 C11.5563025,0.668907563 11.3210084,0.904201681 11.3210084,1.19663866 L11.3210084,1.56302521 L9.91596639,0.157983193 C9.71092437,-0.0470588235 9.37478992,-0.0470588235 9.1697479,0.157983193 C8.96470588,0.36302521 8.96470588,0.699159664 9.1697479,0.904201681 L11.3243697,3.05882353 L11.3243697,4.3697479 L10.6655462,3.71092437 C10.4605042,3.50588235 10.1243697,3.50588235 9.91932773,3.71092437 C9.71428571,3.91932773 9.71428571,4.25210084 9.91932773,4.45714286 L11.3243697,5.86554622 L11.3243697,10.4705882 L6.91092437,6.05714286 L6.91092437,3.42521008 C6.91092437,3.13277311 6.67563025,2.89747899 6.38319328,2.89747899 C6.0907563,2.89747899 5.85546218,3.13277311 5.85546218,3.42521008 L5.85546218,4.99831933 L5.74453782,4.88739496 C5.5394958,4.6789916 5.20336134,4.6789916 4.99831933,4.88739496 C4.79327731,5.09243697 4.79327731,5.42857143 4.99831933,5.63361345 L5.1092437,5.74453782 L3.53613445,5.74453782 C3.24369748,5.74453782 3.00840336,5.97983193 3.00840336,6.27226891 C3.00840336,6.56470588 3.24369748,6.8 3.53613445,6.8 L6.16806723,6.8 L10.5815126,11.2134454 L6.05378151,11.2134454 L4.60504202,9.76470588 C4.39663866,9.55966387 4.06386555,9.55966387 3.85882353,9.76470588 C3.65042017,9.9697479 3.65042017,10.3058824 3.85882353,10.5109244 L4.56134454,11.2134454 L3.02184874,11.2134454 L0.937815126,9.12941176 C0.732773109,8.92436975 0.396638655,8.92436975 0.191596639,9.12941176 C-0.0168067227,9.33781513 -0.0168067227,9.67058824 0.191596639,9.87563025 L1.52605042,11.210084 L1.30084034,11.210084 C1.00840336,11.210084 0.773109244,11.4453782 0.773109244,11.7378151 C0.773109244,12.0302521 1.00840336,12.2655462 1.30084034,12.2655462 L1.66386555,12.2655462 L0.188235294,13.7411765 C-0.0201680672,13.9495798 -0.0201680672,14.2823529 0.188235294,14.4907563 C0.292436975,14.594958 0.426890756,14.6453782 0.561344538,14.6453782 C0.695798319,14.6453782 0.833613445,14.594958 0.934453782,14.4907563 L3.15966387,12.2689076 L4.61176471,12.2689076 L3.85546218,13.0252101 C3.64705882,13.2302521 3.64705882,13.5663866 3.85546218,13.7714286 C3.95966387,13.8756303 4.09411765,13.9260504 4.22857143,13.9260504 C4.36302521,13.9260504 4.50084034,13.8756303 4.60168067,13.7714286 L6.10420168,12.2689076 L10.6218487,12.2689076 L6.06722689,16.8235294 L3.52268908,16.8235294 C3.2302521,16.8235294 2.99495798,17.0588235 2.99495798,17.3512605 C2.99495798,17.6436975 3.2302521,17.8789916 3.52268908,17.8789916 L5.00840336,17.8789916 L4.98487395,17.902521 C4.77983193,18.107563 4.77983193,18.4436975 4.98487395,18.6487395 C5.08907563,18.7529412 5.22352941,18.8033613 5.35798319,18.8033613 C5.49243697,18.8033613 5.6302521,18.7529412 5.73109244,18.6487395 L5.84201681,18.5378151 L5.84201681,20.1983193 C5.84201681,20.4907563 6.07731092,20.7260504 6.3697479,20.7260504 C6.66218487,20.7260504 6.89747899,20.4907563 6.89747899,20.1983193 L6.89747899,17.4789916 L11.3109244,13.0655462 L11.3109244,17.6705882 L9.90588235,19.0756303 C9.70084034,19.2840336 9.70084034,19.6168067 9.90588235,19.8218487 C10.1109244,20.0302521 10.4470588,20.0302521 10.6521008,19.8218487 L11.3109244,19.1630252 L11.3109244,20.5613445 L9.15630252,22.7159664 C8.9512605,22.9210084 8.9512605,23.2571429 9.15630252,23.4621849 C9.36134454,23.6672269 9.69747899,23.6672269 9.90252101,23.4621849 L11.307563,22.0571429 L11.307563,22.2823529 C11.307563,22.5747899 11.5428571,22.810084 11.8352941,22.810084 C12.1277311,22.810084 12.3630252,22.5747899 12.3630252,22.2823529 L12.3630252,22.0571429 L13.7680672,23.4621849 C13.8722689,23.5630252 14.0067227,23.6168067 14.1411765,23.6168067 C14.2756303,23.6168067 14.4134454,23.5663866 14.5142857,23.4621849 C14.7226891,23.2537815 14.7226891,22.9210084 14.5142857,22.7159664 L12.3596639,20.5613445 L12.3596639,19.0218487 L13.1596639,19.8184874 C13.2638655,19.9226891 13.3983193,19.9731092 13.5327731,19.9731092 C13.6672269,19.9731092 13.8016807,19.9226891 13.9058824,19.8184874 C14.1109244,19.6134454 14.1109244,19.2773109 13.9058824,19.0722689 L12.3596639,17.5260504 L12.3596639,13.0084034 L16.9142857,17.5630252 L16.9142857,20.1915966 C16.9142857,20.4840336 17.1495798,20.7193277 17.4420168,20.7193277 C17.7344538,20.7193277 17.9697479,20.4840336 17.9697479,20.1915966 L17.9697479,18.6184874 L17.9932773,18.6420168 C18.097479,18.7462185 18.2319328,18.7966387 18.3663866,18.7966387 C18.5008403,18.7966387 18.6386555,18.7462185 18.7394958,18.6420168 C18.9478992,18.4369748 18.9478992,18.1008403 18.7394958,17.8957983 L18.7159664,17.8722689 L20.2890756,17.8722689 C20.5815126,17.8722689 20.8168067,17.6369748 20.8168067,17.3445378 C20.8168067,17.0521008 20.5815126,16.8168067 20.2890756,16.8168067 L17.6605042,16.8168067 L13.1226891,12.2689076 L17.7277311,12.2689076 L19.2302521,13.7714286 C19.3344538,13.8756303 19.4689076,13.9260504 19.6033613,13.9260504 C19.7378151,13.9260504 19.8756303,13.8756303 19.9764706,13.7714286 C20.1815126,13.5663866 20.1815126,13.2302521 19.9764706,13.0252101 L19.2201681,12.2689076 L20.5310924,12.2689076 L22.7529412,14.4941176 C22.8571429,14.5983193 22.9915966,14.6487395 23.1260504,14.6487395 C23.2605042,14.6487395 23.3983193,14.5983193 23.4991597,14.4941176 C23.707563,14.2857143 23.707563,13.9529412 23.4991597,13.7445378 L22.0268908,12.2689076 Z" id="Path"></path>
        </g>
    </g>
</svg>

<svg width="24" height="24" viewBox="0 0 24 24" xmlns="http://www.w3.org/2000/svg"><path d="M22.027 12.269h.366a.526.526 0 100-1.056h-.225l1.335-1.334a.523.523 0 000-.746.53.53 0 00-.747 0l-2.084 2.084h-1.398l.702-.703a.53.53 0 000-.746.53.53 0 00-.746 0l-1.448 1.449h-4.606l4.414-4.414h2.72a.526.526 0 00.527-.527.526.526 0 00-.528-.528h-1.66l.11-.111a.523.523 0 000-.746.523.523 0 00-.746 0l-.023.023V3.43a.526.526 0 10-1.056 0v2.544l-4.56 4.548V6.003l1.545-1.546a.53.53 0 000-.746.53.53 0 00-.746 0l-.8.8V3.059L14.528.904a.523.523 0 000-.746.53.53 0 00-.746 0l-1.406 1.405v-.366a.526.526 0 00-.527-.528.526.526 0 00-.528.528v.366L9.916.158a.53.53 0 00-.746 0 .53.53 0 000 .746l2.154 2.155v1.31l-.658-.658a.53.53 0 00-.747 0 .53.53 0 000 .746l1.405 1.409v4.605L6.911 6.057V3.425a.526.526 0 00-.528-.528.526.526 0 00-.528.528v1.573l-.11-.11a.523.523 0 00-.747 0 .53.53 0 000 .746l.111.11H3.536a.526.526 0 00-.528.528c0 .293.236.528.528.528h2.632l4.414 4.413H6.054L4.605 9.765a.53.53 0 00-.746 0 .523.523 0 000 .746l.702.702h-1.54L.939 9.13a.53.53 0 00-.746 0 .523.523 0 000 .747l1.334 1.334h-.225a.526.526 0 100 1.056h.363L.188 13.74a.527.527 0 00.373.904c.135 0 .273-.05.373-.154l2.226-2.222h1.452l-.757.756a.523.523 0 000 .746.524.524 0 00.747 0l1.502-1.502h4.518l-4.555 4.555H3.523a.526.526 0 00-.528.527c0 .293.235.528.528.528h1.485l-.023.024a.53.53 0 00.373.9c.134 0 .272-.05.373-.154l.111-.111v1.66c0 .293.235.528.528.528a.526.526 0 00.527-.528V17.48l4.414-4.413v4.605l-1.405 1.405a.53.53 0 000 .746.523.523 0 00.746 0l.659-.659v1.398l-2.155 2.155a.53.53 0 000 .746.53.53 0 00.747 0l1.405-1.405v.225a.526.526 0 101.055 0v-.225l1.405 1.405c.104.101.239.155.373.155.135 0 .272-.05.373-.155a.523.523 0 000-.746l-2.154-2.155v-1.54l.8.797a.524.524 0 00.746 0 .53.53 0 000-.746l-1.546-1.546v-4.518l4.554 4.555v2.629c0 .292.236.527.528.527a.526.526 0 00.528-.527v-1.574l.023.024a.524.524 0 00.746 0 .523.523 0 000-.746l-.023-.024h1.573a.526.526 0 00.528-.527.526.526 0 00-.528-.528h-2.628l-4.538-4.548h4.605l1.502 1.502a.524.524 0 00.746 0 .53.53 0 000-.746l-.756-.756h1.311l2.222 2.225a.524.524 0 00.746 0 .527.527 0 000-.75l-1.472-1.475z" fill="#5CB615" fill-rule="nonzero"/></svg>
